www/assets/icons/restart_alt.svg

<svg width="24" height="24" viewBox="0 0 24 24" xmlns="http://www.w3.org/2000/svg" fill='currentColor'><path d="M12 5.53516V2.53516L8 6.53516L12 10.5352V7.53516C15.31 7.53516 18 10.2252 18 13.5352C18 16.5052 15.83 18.9652 13 19.4452V21.4652C16.95 20.9752 20 17.6152 20 13.5352C20 9.11516 16.42 5.53516 12 5.53516Z"/><path d="M6 13.5352C6 11.8852 6.67 10.3852 7.76 9.29516L6.34 7.87516C4.9 9.32516 4 11.3252 4 13.5352C4 17.6152 7.05 20.9752 11 21.4652V19.4452C8.17 18.9652 6 16.5052 6 13.5352Z"/></svg>

<svg xmlns="http://www.w3.org/2000/svg" width="24" height="24" viewBox="0 0 24 24" fill='currentColor'><path d="M12 5.535v-3l-4 4 4 4v-3c3.31 0 6 2.69 6 6 0 2.97-2.17 5.43-5 5.91v2.02c3.95-.49 7-3.85 7-7.93 0-4.42-3.58-8-8-8m-6 8c0-1.65.67-3.15 1.76-4.24l-1.42-1.42A8.02 8.02 0 0 0 4 13.535c0 4.08 3.05 7.44 7 7.93v-2.02c-2.83-.48-5-2.94-5-5.91"/></svg>
